X:1
T:Brent, CM
T:Brent, CM
T:Samuel Weekes, 1875
T:Public Domain Courtesy of the Cyber Hymnal™
C:Samuel Weekes, 1875
Z:Public Domain
Z:Courtesy of the Cyber Hymnal™
%%score ( 1 2 ) ( 3 4 )
L:1/8
Q:1/4=113
M:4/4
K:Ab
V:1 treble 
V:2 treble 
V:3 bass 
V:4 bass 
V:1
 E2 | A2 E2 A2 E2 | [DF]3 [DG] [EA]2 [EB]2 | [Ec]2 [Ec]2 [EB]2 [=DA]2 | [EG]6 [EG]2 | %5
 [EA]3 [EG] [DF]2 [EA]2 | [Dd]3 [Ec] [FB]2 [EB]2 | [Ee]2 [CA]2 [Ec]2 [DB]2 | [CA]6 |] %9
V:2
 E2 | A2 E2 A2 E2 | x8 | x8 | x8 | x8 | x8 | x8 | x6 |] %9
V:3
 E,2 | A,2 E,2 A,2 [C,A,]2 | [D,A,]3 [B,,B,] [C,A,]2 [E,G,]2 | A,2 A,2 [G,B,]2 [F,B,]2 | %4
 [E,B,]6 [E,B,]2 | [C,A,]3 [C,A,] [D,A,]2 [C,A,]2 | [B,,B,]3 [C,B,] [D,B,]2 [D,G,]2 | %7
 [C,A,]2 [F,A,]2 [E,A,]2 [E,G,]2 | [A,,A,]6 |] %9
V:4
 E,2 | A,2 E,2 A,2 x2 | x8 | A,2 A,2 x4 | x8 | x8 | x8 | x8 | x6 |] %9

